X:195
T:The Saucy Sailor Boy
M:3/4
L:1/8
K:C
C2 CD E2|C2 C2 CD|E2 C2 CE|G2 G2 FE|D4 DE|
F2 F>E DE|GE C2 DE|F2 D2 CB,|C4 DE|
F2 F>E DE|GE C2 DE|F2 D2 CB,|C6||
